X: 945
T: The wren hornpipe
C: anon.
O: Ireland
B: Francis O'Neill: "The Dance Music of Ireland" (1907) no. 945
R: Hornpipe
Z: Transcribed by Frank Nordberg - http://www.musicaviva.com
F: http://www.musicaviva.com/abc/tunes/ireland/oneill-1001/oneill-1001-094
5.abc
m: Tn3 = n(3n/o/n/ m/n/
M: C|
L: 1/8
K: Am
(ed)|cBA(G Ac)BA|GEDE TG3B|cBA(G AB)cd|eaag (3(efe) de|cBA(G Ac)BA|G(EDE)
 GABd|c2(BA) GAB(G|A2)AB A2:|
|:g2|a2a2 ac'b(a|ge)de Tg3(^f|g)^fga b2a2|g(ede) Td3B|cBA(G Ac)BA|G(EDE)
GAB(d|c2)B(A GA)B(G|A2)ABA2:|
W:
W:
W: From Musica Viva - http://www.musicaviva.com
W: the Internet center for free sheet music downloads.


